X:202
T:Scotch Sett Of Quadrilles No.2. Le4.202
M:2/4
L:1/8
Q:2/4=50
B:L.Leadley MS#4 c1850
Z:Village Music Project 2016 Steve Mansfield
K:G
B/c/ | d2 cB | c c d/c/B/c/ | d2 cB | d/c/B/A/ (B/d/f/a/) |
{ga}b2 ag | aa b/a/g/a/ | {ga}b2 ag | b/a/g/f/ g ||
B/c/ | dd/d/ dg/e/ | dB/B/ BB/c/ | dd/B/ e/d/c/B/ | c/B/A/G/ {G}FB/c/ |
dd/d/ dg/e/ | dB/B/ B(g/f/) | (f/e/)(e/d/) (d/^c/)(B/A/) | d/f/e/^c/ d ||
B/c/ | dd/d/ dg/e/ | d/c/B/c/ dB/c/ | dd/B/ e/d/c/B/ | c/B/A/G/ {G}FB/c/ |
dd/d/ dg/e/ | d/c/B/c/ dB/c/ | de/=f/ e/d/c/B/ | c/B/A/G/ F/D/G/A/ !D.C.! |]

